logo/google-maps.svg

<?xml version="1.0" encoding="UTF-8"?>
<svg width="256px" height="367px" viewBox="0 0 256 367" version="1.1" xmlns="http://www.w3.org/2000/svg" xmlns:xlink="http://www.w3.org/1999/xlink" preserveAspectRatio="xMidYMid">
    <g>
        <path d="M70.5853976,271.865254 C81.1995596,285.391378 90.8598594,299.639537 99.4963338,314.50654 C106.870174,328.489419 109.94381,337.97007 115.333495,354.817346 C118.638014,364.124835 121.625069,366.902652 128.046515,366.902652 C135.045169,366.902652 138.219816,362.176756 140.672953,354.867852 C145.766819,338.95854 149.763988,326.815514 156.069992,315.343493 C168.443902,293.193112 183.819296,273.510299 198.927732,254.592287 C203.018698,249.238677 229.462067,218.047767 241.366994,193.437035 C241.366994,193.437035 255.999233,166.402027 255.999233,128.645368 C255.999233,93.3274168 241.569017,68.8321265 241.569017,68.8321265 L200.024428,79.9578224 L174.793197,146.408963 L168.552129,155.57215 L167.303915,157.231625 L165.64444,159.309576 L162.729537,162.628525 L158.56642,166.791642 L136.098575,185.09637 L79.928962,217.528279 L70.5853976,271.865254 Z" fill="#34A853"></path>
        <path d="M12.6120081,188.891517 C26.3207125,220.205084 52.7568668,247.730719 70.6431185,271.8869 L165.64444,159.352866 C165.64444,159.352866 152.260416,176.856717 127.981579,176.856717 C100.939355,176.856717 79.0920095,155.2619 79.0920095,128.032084 C79.0920095,109.359386 90.325932,96.5309245 90.325932,96.5309245 L25.8373003,113.811107 L12.6120081,188.891517 Z" fill="#FBBC04"></path>
        <path d="M166.705061,5.78651629 C198.256727,15.959818 225.262874,37.3165365 241.597878,68.8104812 L165.673301,159.28793 C165.673301,159.28793 176.907223,146.228586 176.907223,127.671329 C176.907223,99.8065834 153.443693,78.990998 128.09702,78.990998 C104.128433,78.990998 90.3620076,96.4659886 90.3620076,96.4659886 L90.3620076,39.4666386 L166.705061,5.78651629 Z" fill="#4285F4"></path>
        <path d="M30.0148476,45.7654275 C48.8607087,23.2182162 82.0213432,0 127.736265,0 C149.915506,0 166.625695,5.82259183 166.625695,5.82259183 L90.2898565,96.5164943 L36.2054099,96.5164943 L30.0148476,45.7654275 Z" fill="#1A73E8"></path>
        <path d="M12.6120081,188.891517 C12.6120081,188.891517 0,164.194204 0,128.414485 C0,94.5972757 13.145926,65.0369799 30.0148476,45.7654275 L90.3331471,96.5237094 L12.6120081,188.891517 Z" fill="#EA4335"></path>
    </g>
</svg>

<svg viewBox="0 0 256 367" xmlns="http://www.w3.org/2000/svg"><path fill="#34A853" d="M70.58 271.86c10.61 13.52 20.27 27.77 28.91 42.64 7.37 13.98 10.44 23.46 15.83 40.31 3.3 9.3 6.29 12.08 12.71 12.08 6.99 0 10.17-4.73 12.62-12.04 5.09-15.91 9.09-28.06 15.39-39.53 12.37-22.16 27.74-41.84 42.85-60.76 4.09-5.36 30.53-36.55 42.43-61.16 0 0 14.63-27.04 14.63-64.8 0-35.32-14.44-59.82-14.44-59.82L199.96 79.9l-25.24 66.45 -6.25 9.16 -1.25 1.65 -1.66 2.07 -2.92 3.31 -4.17 4.16L136 185l-56.17 32.43 -9.35 54.33Z"/><path fill="#FBBC04" d="M12.61 188.89c13.7 31.31 40.14 58.83 58.03 82.99l95-112.54s-13.39 17.5-37.67 17.5c-27.05 0-48.89-21.6-48.89-48.83 0-18.68 11.23-31.51 11.23-31.51l-64.49 17.28 -13.23 75.08Z"/><path fill="#4285F4" d="M166.7 5.78c31.55 10.17 58.55 31.53 74.89 63.02l-75.93 90.47s11.23-13.06 11.23-31.62c0-27.87-23.47-48.69-48.82-48.69 -23.97 0-37.74 17.47-37.74 17.47v-57l76.34-33.69Z"/><path fill="#1A73E8" d="M30.01 45.76c18.84-22.55 52-45.77 97.72-45.77 22.17 0 38.88 5.82 38.88 5.82L90.27 96.5H36.18l-6.2-50.76Z"/><path fill="#EA4335" d="M12.61 188.89s-12.62-24.7-12.62-60.48c0-33.82 13.14-63.38 30.01-82.65l60.31 50.75 -77.73 92.36Z"/></svg>
